X:1
P: The Clumsy Lover
C: Neil Dickie
C: from B. McOwen, arr. T. Traub 8-4-03
R: reel
M: 4/4
K: A
L: 1/8
|: d2 |"A"ceef ecBA|"D"dffd afdf|"A"ceef ecBA|"D"d2 Bc decB|"A"ceef ecBA|"D"dffd "G"=gfed|"A"ceec "G"d2 =GB|BAAB "A"A2 :|
|: d2|"A"ceeA e2 Ae|"D"d3 f =gfed|"A"ceeA e2 Ae|"Bm"dBBc "E7"decB|"A"ceeA e2 Ae|"D"d3 f =gfed|"A"ceec "G"d2 =GB|BAAB "A"A2 :|
|: d2 |"A"caac aaca|"D"daad aada|"A"caac aaca|"E"Baca daea|"A"caac aaca|"D"daad aada|"A"ceec "G"d2 =GB|BAAB"A" A:|
